source/img/quotes.svg

<svg width="31" height="22" viewBox="0 0 31 22" fill="none" xmlns="http://www.w3.org/2000/svg">
<path d="M7.5673 21.12C5.1016 21.12 3.26353 20.3307 2.05309 18.752C0.887489 17.1733 0.304688 15.3387 0.304688 13.248C0.304688 11.328 0.730581 9.49333 1.58237 7.744C2.47899 5.952 3.62218 4.39467 5.01193 3.072C6.44652 1.70667 7.99319 0.682666 9.65193 0L14.2919 3.264C12.4539 3.98933 10.7951 4.97067 9.3157 6.208C7.88111 7.40267 6.87242 8.68267 6.28962 10.048L6.62585 10.24C6.89483 10.0693 7.18623 9.94133 7.50005 9.856C7.8587 9.77067 8.32942 9.728 8.91222 9.728C10.1227 9.728 11.3107 10.1547 12.4763 11.008C13.6867 11.8613 14.2919 13.184 14.2919 14.976C14.2919 16.9813 13.5971 18.5173 12.2073 19.584C10.8624 20.608 9.3157 21.12 7.5673 21.12ZM24.0427 21.12C21.577 21.12 19.7389 20.3307 18.5285 18.752C17.3629 17.1733 16.7801 15.3387 16.7801 13.248C16.7801 11.328 17.2059 9.49333 18.0577 7.744C18.9543 5.952 20.0975 4.39467 21.4873 3.072C22.9219 1.70667 24.4686 0.682666 26.1273 0L30.7673 3.264C28.9292 3.98933 27.2705 4.97067 25.7911 6.208C24.3565 7.40267 23.3478 8.68267 22.765 10.048L23.1012 10.24C23.3702 10.0693 23.6616 9.94133 23.9754 9.856C24.3341 9.77067 24.8048 9.728 25.3876 9.728C26.598 9.728 27.786 10.1547 28.9516 11.008C30.1621 11.8613 30.7673 13.184 30.7673 14.976C30.7673 16.9813 30.0724 18.5173 28.6827 19.584C27.3377 20.608 25.7911 21.12 24.0427 21.12Z" fill="black"/>
</svg>

<svg width="31" height="22" fill="none" xmlns="http://www.w3.org/2000/svg"><path d="M7.567 21.12c-2.465 0-4.303-.79-5.514-2.368C.887 17.173.305 15.339.305 13.248c0-1.92.426-3.755 1.277-5.504a16.706 16.706 0 013.43-4.672C6.447 1.707 7.993.682 9.652 0l4.64 3.264a17.995 17.995 0 00-4.976 2.944C7.88 7.403 6.872 8.683 6.29 10.048l.336.192c.269-.17.56-.299.874-.384.359-.085.83-.128 1.412-.128 1.21 0 2.399.427 3.564 1.28 1.21.853 1.816 2.176 1.816 3.968 0 2.005-.695 3.541-2.085 4.608-1.345 1.024-2.891 1.536-4.64 1.536zm16.476 0c-2.466 0-4.304-.79-5.514-2.368-1.166-1.579-1.749-3.413-1.749-5.504 0-1.92.426-3.755 1.278-5.504a16.705 16.705 0 013.43-4.672c1.434-1.365 2.98-2.39 4.64-3.072l4.64 3.264a17.994 17.994 0 00-4.977 2.944c-1.434 1.195-2.443 2.475-3.026 3.84l.336.192c.27-.17.56-.299.874-.384.36-.085.83-.128 1.413-.128 1.21 0 2.398.427 3.564 1.28 1.21.853 1.815 2.176 1.815 3.968 0 2.005-.695 3.541-2.084 4.608-1.345 1.024-2.892 1.536-4.64 1.536z" fill="#000"/></svg>
